X: 19152
T: Irish, The
R: mazurka
M: 3/4
K: Gmajor
V:1
DG|:"G"B3 A GB|d4 AB|"D7"c3 e dc|"G"(3Bcd g2 DG|
B3 A GB|d4 AB|"D7"c3 A FA||1 "G"G4 DG:|2 G4 gf||
|:"C"e2 ce ce|"G"d2 d2 AB|"D7"c3 A FA|"G"B4 gf|
"C"e2 ce ce|"G"d2 d2 AB|"D7"c3 A FA||1 "G"G4 gf:|2 "G"G4||
V:2
B2|:GF GD dc|BA GB cd|AG Fc BA|G2 BD GB|
de dc Bd|gG Be cd|eA FD Ac||1 Bc dc BA:|2 Bc dc BA||
|:Gc GE Gc|BG Bg fg|af dc AF|GG, B,D GB|
cG EC EG|BG, B,D FG|AF DF Ac||1 Bd gd BA:|2 B4||

